Obsidian-SemiLight/actions/22s/show-menu.svg

<svg viewBox="0 0 22 22" xmlns="http://www.w3.org/2000/svg"><path d="m3 3v3h3v-3zm4 0v1h9l1-1zm11.292969 0-15.292969 15.292969.7070312.707031 15.2929688-15.2929688zm-11.292969 2v1h4 1 1.169922l1-1zm-4 5v1 1 1h3v-1-1-1zm4 0v1h2l1-1zm7 0-1 1h4v-1zm-2 2-1 1h2v-1zm-3.1699219 3-1 1h9.1699219v-1h-6-1zm-1.8300781 2-1 1h8v-1zm10 1v1h2v-1z" fill="#4d4d4d"/></svg>

<svg xmlns="http://www.w3.org/2000/svg" viewBox="0 0 22 22">
  <defs id="defs3051">
    <style type="text/css" id="current-color-scheme">
      .ColorScheme-Text {
        color:#4d4d4d;
      }
      </style>
  </defs>
 <path 
     style="fill:currentColor;fill-opacity:1;stroke:none" 
     d="M 3 3 L 3 6 L 6 6 L 6 3 L 3 3 z M 7 3 L 7 4 L 16 4 L 17 3 L 7 3 z M 18.292969 3 L 3 18.292969 L 3.7070312 19 L 19 3.7070312 L 18.292969 3 z M 7 5 L 7 6 L 11 6 L 12 6 L 13.169922 6 L 14.169922 5 L 7 5 z M 3 10 L 3 11 L 3 12 L 3 13 L 6 13 L 6 12 L 6 11 L 6 10 L 3 10 z M 7 10 L 7 11 L 9 11 L 10 10 L 7 10 z M 14 10 L 13 11 L 17 11 L 17 10 L 14 10 z M 12 12 L 11 13 L 13 13 L 13 12 L 12 12 z M 8.8300781 15 L 7.8300781 16 L 17 16 L 17 15 L 11 15 L 10 15 L 8.8300781 15 z M 7 17 L 6 18 L 14 18 L 14 17 L 7 17 z M 17 18 L 17 19 L 19 19 L 19 18 L 17 18 z "
	 class="ColorScheme-Text"
     />
</svg>
